X:76
T:Ayer vite na fonte
R:Tonada
C:Tradicional
S:Msica Tradicional Asturiana, (C) Tello & Tito. Asturies, 2001.
S:http://pagina.de/MusTradAst <telloytito@asturies.org>
A:Asturies
Z:Asturias, canciones
M:3/8
L:1/8
Q:3/8=83
K:G
|E2 G|B~B2|cBA-|Acc|d3/2c/ B-|B2 z|
E2 G|B~B2|cBA-|AGF|G3/2F/ E-|E2 z|
|E2 E|G~G2|AGF-|FGA|B B2-|B2 z|
E2 G|B~B2|cBA-|AGF|G3/2F/ E-|E2 z|
W:Ayer vite na fonte,
W:tabes cantando,
W:y hoi que pas per ella
W:tabes llorando.
W:Dime porqu tas triste
W:y descolorida,
W:dime por qu sospires,
W:prenda querida.
W:
W:Sospiro por amores
W:que yo tena,
W:sospiro por amores
W:que yo quera.
W:Amores que tuvisti
W:sigues teniendo;
W:ya sabes que te quisi
W:y toi queriendo.
W:
W:Si tantu me quisisti
W:y tas queriendo,
W:Porqu nun vas veme
W:cuandu t'espero
W:
